X: 5
T: The Curragh Races
R: reel
M: 4/4
L: 1/8
K: Ador
|: eAcA eAcA | G2 BG dGBG | eAcA efge | fBGA BA A2|
eAcA eAcA | G2 BG dGAB | c2 cA B2 ge | dBGB A4 :|
|: c2 ec gcec | c2 ec dBGB | c2 ec gcec | dBGA BAAB |
c2 ec gcec | ~g3e dBGB | c2 cA B2 ge | dBGB A4 :|


